svgs/nextcloud.svg

<svg width="24" height="24" viewBox="0 0 24 24" fill="none" xmlns="http://www.w3.org/2000/svg"><path d="M22 12.018c-.008-1.65-1.328-2.985-2.96-2.993-1.18 0-2.192.723-2.667 1.74-.545-1.923-2.286-3.35-4.358-3.348-2.083 0-3.833 1.442-4.368 3.38C7.181 9.76 6.154 9.025 4.96 9.025c-1.632.008-2.953 1.343-2.96 2.99v.002c.007 1.648 1.328 2.983 2.96 2.991 1.193 0 2.22-.736 2.687-1.773.534 1.94 2.285 3.382 4.368 3.382 2.072 0 3.813-1.426 4.36-3.35.473 1.02 1.485 1.741 2.664 1.741 1.633-.006 2.954-1.342 2.961-2.99ZM4.96 13.252h-.013c-.668 0-1.21-.547-1.21-1.223v-.013c0-.694.537-1.236 1.223-1.236.685 0 1.223.542 1.223 1.236 0 .693-.537 1.235-1.223 1.236Zm7.055 1.608h-.013c-1.547 0-2.801-1.267-2.801-2.831v-.013c0-1.582 1.25-2.845 2.814-2.845 1.565 0 2.815 1.263 2.815 2.845 0 1.581-1.25 2.844-2.815 2.844Zm7.024-1.608h-.012c-.669 0-1.21-.547-1.21-1.223v-.013c0-.694.536-1.236 1.222-1.236.686 0 1.223.542 1.223 1.236 0 .693-.537 1.236-1.223 1.236Z" fill="#000"/></svg>

<svg id="vector" xmlns="http://www.w3.org/2000/svg" width="24" height="24" viewBox="0 0 24 24"><path fill="#000000" d="M22,12.017C21.993,10.367 20.672,9.033 19.04,9.025H19.039C17.859,9.025 16.847,9.748 16.373,10.766C15.828,8.842 14.087,7.416 12.015,7.417C9.932,7.417 8.182,8.859 7.648,10.797C7.181,9.76 6.153,9.025 4.96,9.025C3.328,9.033 2.007,10.368 2,12.016V12.017C2.007,13.665 3.328,15 4.959,15.008H4.96C6.153,15.008 7.18,14.272 7.647,13.235C8.181,15.176 9.932,16.617 12.015,16.617C14.087,16.617 15.828,15.191 16.374,13.268C16.848,14.287 17.86,15.008 19.039,15.008C20.672,15.002 21.993,13.666 22,12.017ZM4.96,13.253C4.957,13.253 4.952,13.253 4.948,13.253C4.279,13.253 3.737,12.706 3.737,12.03C3.737,12.025 3.737,12.021 3.737,12.017C3.737,11.323 4.274,10.781 4.96,10.781V10.781C5.645,10.781 6.182,11.323 6.182,12.017C6.182,12.71 5.646,13.252 4.96,13.253ZM12.015,14.861C12.012,14.861 12.007,14.861 12.002,14.861C10.455,14.861 9.201,13.594 9.201,12.03C9.201,12.025 9.201,12.021 9.201,12.017C9.201,10.435 10.451,9.172 12.015,9.172C13.58,9.172 14.83,10.435 14.83,12.017C14.83,13.598 13.58,14.861 12.015,14.861ZM19.039,13.253C19.036,13.253 19.031,13.253 19.027,13.253C18.358,13.253 17.817,12.706 17.817,12.03C17.817,12.025 17.817,12.021 17.817,12.017C17.817,11.323 18.353,10.781 19.039,10.781V10.781C19.725,10.781 20.263,11.323 20.263,12.017C20.263,12.71 19.725,13.253 19.039,13.253Z" id="path_0"/></svg>
